Obsidian-SemiLight/actions/24s/draw-halfcircle1.svg

<svg viewBox="0 0 24 24" xmlns="http://www.w3.org/2000/svg"><path d="m12 4c-4.432 0-8 3.568-8 8s3.568 8 8 8h1v-16zm0 1v14c-3.878 0-7-3.122-7-7s3.122-7 7-7z" fill="#4d4d4d"/></svg>

<svg xmlns="http://www.w3.org/2000/svg" viewBox="0 0 24 24">
  <defs id="defs3051">
    <style type="text/css" id="current-color-scheme">
      .ColorScheme-Text {
        color:#4d4d4d;
      }
      </style>
  </defs>
 <path style="fill:currentColor;fill-opacity:1;stroke:none" 
     d="M 12 4 C 7.568 4 4 7.568 4 12 C 4 16.432 7.568 20 12 20 L 13 20 L 13 4 L 12 4 z M 12 5 L 12 19 C 8.122 19 5 15.878 5 12 C 5 8.122 8.122 5 12 5 z "
     class="ColorScheme-Text"
     />
</svg>
